X: 16
T: Toss The Feathers
Z: Benjamin Glauser
S: https://thesession.org/tunes/113#setting46985
R: reel
M: 4/4
L: 1/8
K: Edor
|:EBBB dBBB|EBBA FEFA|BE EE B2AB|1 defe dBAF:|2 defe dBA2||
Beed e2 de|fede fe e2|febe febe|fede fee2|
Beed e2 de|fede fa a2|b2bf a2af|egfe dBAF|

